lib/flags/ki-kiribati.svg

<svg xmlns="http://www.w3.org/2000/svg" fill="none" aria-hidden="true" viewBox="0 0 42 30"><g id="Country=KI -  Kiribati, Size=sm (36x24)" filter="url(#filter0_dd_91_27070)"><g clip-path="url(#clip0_91_27070)"><g id="flag"><mask id="mask0_91_27070" width="36" height="24" x="3" y="2" maskUnits="userSpaceOnUse" style="mask-type:alpha"><rect id="mask" width="36" height="24" x="3" y="2" fill="white"/></mask><g mask="url(#mask0_91_27070)"><g id="contents"><path id="background" fill="#E31D1C" fill-rule="evenodd" d="M3 2V26H39V2H3Z" clip-rule="evenodd"/><mask id="mask1_91_27070" width="36" height="24" x="3" y="2" maskUnits="userSpaceOnUse" style="mask-type:alpha"><path id="background_2" fill="white" fill-rule="evenodd" d="M3 2V26H39V2H3Z" clip-rule="evenodd"/></mask><g mask="url(#mask1_91_27070)"><g id="mark"><path id="sun" fill="#FFC84A" fill-rule="evenodd" d="M21.0102 11.9607C21.0289 11.9622 21.0476 11.9639 21.0662 11.9656C21.1304 11.7696 21.2443 11.4482 21.3903 11.1442C21.6218 10.6622 22.2907 10.3916 22.2907 10.3916C22.2907 10.3916 21.9602 10.723 21.8733 11.2482C21.8203 11.5691 21.8015 11.8953 21.795 12.1006L21.8416 12.114C21.958 11.9369 22.1528 11.6553 22.3731 11.3966C22.729 10.9786 23.4517 10.8599 23.4517 10.8599C23.4517 10.8599 23.0407 11.1104 22.8135 11.6013C22.6816 11.8864 22.5785 12.1828 22.5152 12.3813C22.5384 12.3931 22.5614 12.4051 22.5843 12.4174C22.7442 12.2676 22.9936 12.0447 23.2602 11.8467C23.7128 11.5106 24.447 11.5394 24.447 11.5394C24.447 11.5394 23.9832 11.7013 23.6375 12.1343C23.4479 12.3718 23.2807 12.6244 23.1684 12.804C23.1931 12.824 23.2175 12.8443 23.2415 12.8648C23.4351 12.7521 23.7162 12.597 24.0065 12.4662C24.5325 12.2292 25.2406 12.4041 25.2406 12.4041C25.2406 12.4041 24.7477 12.4691 24.3013 12.8218C24.0731 13.0022 23.8607 13.1991 23.7075 13.3485C23.7287 13.3754 23.7493 13.4025 23.7696 13.4299C23.9853 13.364 24.2801 13.2813 24.5769 13.221C25.1517 13.1042 25.7912 13.4262 25.7912 13.4262C25.7912 13.4262 25.2953 13.3833 24.7662 13.6295C24.5189 13.7446 24.2807 13.876 24.097 13.9833C24.1161 14.0249 24.1342 14.067 24.1514 14.1094C24.371 14.0902 24.6525 14.0722 24.9309 14.0727C25.5206 14.0738 26.0622 14.5154 26.0622 14.5154C26.0622 14.5154 25.5898 14.3744 25.012 14.5086C24.7638 14.5662 24.5196 14.6387 24.3217 14.7027C24.3308 14.7549 24.3386 14.8075 24.3449 14.8605C24.5536 14.8857 24.8073 14.9224 25.0547 14.9736C25.629 15.0926 26.0449 15.6312 26.0449 15.6312C26.0449 15.6312 25.6203 15.3994 25.0233 15.4146C24.788 15.4205 24.5526 15.4394 24.3539 15.4601C24.3488 15.5178 24.342 15.575 24.3335 15.6317C24.5197 15.6986 24.7371 15.7828 24.9458 15.8778C25.4706 16.1168 25.7277 16.7288 25.7277 16.7288C25.7277 16.7288 25.3788 16.4126 24.7954 16.2989C24.5858 16.2581 24.3734 16.2277 24.1871 16.2054C24.1634 16.2702 24.1375 16.3341 24.1094 16.397C24.2636 16.4942 24.4371 16.6097 24.6011 16.7326C25.052 17.0703 25.1476 17.7181 25.1476 17.7181C25.1476 17.7181 24.8877 17.3402 24.348 17.1128C24.1678 17.0368 23.9828 16.9691 23.8164 16.9127C23.7725 16.9752 23.7264 17.0364 23.678 17.0961C23.7962 17.2153 23.925 17.352 24.0443 17.4934C24.3982 17.9127 24.3274 18.5629 24.3274 18.5629C24.3274 18.5629 24.1697 18.1427 23.7014 17.8132C23.554 17.7095 23.4006 17.6121 23.2596 17.5273C23.1989 17.5799 23.1361 17.6306 23.0713 17.6794C23.1503 17.8156 23.2334 17.9686 23.3071 18.1238C23.5363 18.6067 23.2907 19.2224 23.2907 19.2224C23.2907 19.2224 23.2521 18.7808 22.8874 18.3604C22.7786 18.2351 22.6631 18.1141 22.5546 18.006C22.4761 18.0471 22.3957 18.0857 22.3135 18.1217C22.354 18.2649 22.394 18.4232 22.425 18.5817C22.5262 19.0981 22.131 19.6489 22.131 19.6489C22.131 19.6489 22.2052 19.2109 21.9562 18.7283C21.8837 18.5878 21.8039 18.4501 21.7272 18.3254C21.6383 18.3488 21.5479 18.3693 21.4562 18.3867C21.4592 18.5315 21.4579 18.6897 21.4483 18.8464C21.4162 19.3698 20.8917 19.8274 20.8917 19.8274C20.8917 19.8274 21.0748 19.4155 20.9543 18.8955C20.9192 18.7442 20.8764 18.5941 20.8332 18.4573C20.7796 18.4594 20.7257 18.4604 20.6715 18.4604C20.6348 18.4604 20.5982 18.4599 20.5617 18.459C20.5249 18.6014 20.4802 18.7564 20.4276 18.9081C20.254 19.409 19.6206 19.7403 19.6206 19.7403C19.6206 19.7403 19.9104 19.38 19.935 18.8495C19.9422 18.6943 19.9414 18.5386 19.9367 18.3959C19.8459 18.3798 19.7563 18.3607 19.6681 18.3388C19.5955 18.4717 19.5117 18.6157 19.4209 18.7548C19.125 19.2082 18.424 19.4043 18.424 19.4043C18.424 19.4043 18.7975 19.1112 18.9557 18.5993C19.0038 18.4437 19.0436 18.2859 19.0758 18.1416C18.9949 18.1074 18.9157 18.0707 18.8382 18.0316C18.7312 18.1499 18.6092 18.278 18.4812 18.3996C18.0781 18.7821 17.3454 18.8331 17.3454 18.8331C17.3454 18.8331 17.7836 18.6221 18.0673 18.155C18.1586 18.0046 18.2415 17.85 18.3119 17.7094C18.2488 17.6632 18.1875 17.6151 18.128 17.5653C17.9856 17.6622 17.8224 17.7673 17.6548 17.8636C17.1596 18.1482 16.4348 18.04 16.4348 18.04C16.4348 18.04 16.9173 17.9296 17.3198 17.5373C17.4571 17.4034 17.5866 17.2628 17.6976 17.1357C17.6504 17.0793 17.6052 17.0214 17.562 16.9623C17.3914 17.0319 17.1941 17.1068 16.9943 17.171C16.4397 17.3492 15.7609 17.0989 15.7609 17.0989C15.7609 17.0989 16.259 17.0878 16.7504 16.786C16.9323 16.6743 17.1072 16.5531 17.2554 16.4447C17.2277 16.3855 17.202 16.3255 17.1782 16.2646C16.9851 16.3007 16.7581 16.3377 16.5315 16.362C15.946 16.4247 15.3479 16.0451 15.3479 16.0451C15.3479 16.0451 15.8361 16.1339 16.3913 15.9381C16.6163 15.8588 16.8361 15.7666 17.0178 15.685C17.009 15.6323 17.0016 15.5791 16.9956 15.5255C16.7868 15.5197 16.534 15.5068 16.2858 15.4792C15.7007 15.4142 15.2237 14.9173 15.2237 14.9173C15.2237 14.9173 15.6732 15.1084 16.2651 15.0378C16.5256 15.0068 16.7841 14.9597 16.9919 14.9168C16.9968 14.8675 17.003 14.8185 17.0103 14.7698C16.7993 14.7214 16.5353 14.6541 16.2809 14.5713C15.7272 14.3909 15.3881 13.8113 15.3881 13.8113C15.3881 13.8113 15.7778 14.0874 16.3724 14.137C16.6586 14.1609 16.9474 14.1657 17.17 14.1642C17.185 14.1249 17.2008 14.086 17.2175 14.0474C17.0172 13.9559 16.7565 13.8292 16.5113 13.687C16.0174 13.4006 15.8337 12.7681 15.8337 12.7681C15.8337 12.7681 16.1435 13.115 16.7104 13.2822C17.0077 13.37 17.3137 13.4362 17.5376 13.4793C17.5553 13.4544 17.5733 13.4297 17.5917 13.4053C17.4173 13.2712 17.1781 13.0778 16.9615 12.8705C16.5603 12.4864 16.5542 11.8331 16.5542 11.8331C16.5542 11.8331 16.7604 12.2364 17.2649 12.5205C17.5468 12.6793 17.8449 12.8166 18.0532 12.9068C18.0747 12.8877 18.0965 12.8689 18.1186 12.8503C17.9808 12.684 17.7829 12.4332 17.6142 12.1721C17.3204 11.7176 17.4799 11.0799 17.4799 11.0799C17.4799 11.0799 17.5787 11.514 17.9983 11.8917C18.2472 12.1158 18.5201 12.3199 18.701 12.4489C18.7216 12.4374 18.7423 12.4261 18.7631 12.415C18.6704 12.2261 18.5333 11.9285 18.4302 11.6264C18.2589 11.1248 18.5757 10.5353 18.5757 10.5353C18.5757 10.5353 18.5621 10.9781 18.8754 11.4301C19.0691 11.7095 19.2937 11.9731 19.437 12.1336C19.4509 12.1292 19.4649 12.1249 19.479 12.1207C19.44 11.9193 19.3842 11.5871 19.3655 11.2581C19.3359 10.7346 19.8037 10.2308 19.8037 10.2308C19.8037 10.2308 19.67 10.6574 19.851 11.1634C19.9641 11.4795 20.1123 11.7867 20.2075 11.9727C20.2257 11.9707 20.244 11.9688 20.2623 11.967C20.2751 11.7638 20.3046 11.4245 20.3706 11.096C20.4742 10.58 21.0575 10.1826 21.0575 10.1826C21.0575 10.1826 20.8193 10.5716 20.8676 11.1008C20.8978 11.4315 20.9644 11.7605 21.0102 11.9607Z" clip-rule="evenodd"/><g id="waves"><path id="white" fill="#F7FCFF" fill-rule="evenodd" d="M2.10888 15.92L5.18302 14.811C5.52972 14.686 5.90947 14.6875 6.25514 14.8154L10.6146 16.428C10.989 16.5665 11.4023 16.5564 11.7696 16.3997L15.3463 14.8739C15.7312 14.7098 16.1657 14.7068 16.5527 14.8658L20.2927 16.4016C20.6707 16.5568 21.0944 16.5577 21.4731 16.4042L25.2906 14.8567C25.6692 14.7033 26.0927 14.7042 26.4706 14.8593L30.2397 16.4059C30.6116 16.5585 31.0279 16.5619 31.4022 16.4154L35.4796 14.8196C35.8138 14.6888 36.1828 14.677 36.5246 14.7862L40.072 15.92V25.9336H2.00879L2.10888 15.92Z" clip-rule="evenodd"/><mask id="mask2_91_27070" width="39" height="12" x="2" y="14" maskUnits="userSpaceOnUse" style="mask-type:alpha"><path id="white_2" fill="white" fill-rule="evenodd" d="M2.10888 15.92L5.18302 14.811C5.52972 14.686 5.90947 14.6875 6.25514 14.8154L10.6146 16.428C10.989 16.5665 11.4023 16.5564 11.7696 16.3997L15.3463 14.8739C15.7312 14.7098 16.1657 14.7068 16.5527 14.8658L20.2927 16.4016C20.6707 16.5568 21.0944 16.5577 21.4731 16.4042L25.2906 14.8567C25.6692 14.7033 26.0927 14.7042 26.4706 14.8593L30.2397 16.4059C30.6116 16.5585 31.0279 16.5619 31.4022 16.4154L35.4796 14.8196C35.8138 14.6888 36.1828 14.677 36.5246 14.7862L40.072 15.92V25.9336H2.00879L2.10888 15.92Z" clip-rule="evenodd"/></mask><g mask="url(#mask2_91_27070)"><path id="wave" stroke="#015989" stroke-width="2" d="M2.10889 18.2455L5.18303 17.1365C5.52972 17.0115 5.90947 17.013 6.25515 17.1409L10.6146 18.7535C10.9891 18.892 11.4023 18.8819 11.7696 18.7252L15.3463 17.1994C15.7312 17.0353 16.1657 17.0323 16.5527 17.1913L20.2927 18.7271C20.6707 18.8823 21.0944 18.8832 21.4731 18.7297L25.2906 17.1822C25.6692 17.0288 26.0927 17.0297 26.4706 17.1848L30.2397 18.7314C30.6116 18.884 31.0279 18.8874 31.4022 18.7409L35.4796 17.1451C35.8138 17.0143 36.1828 17.0025 36.5246 17.1117L40.072 18.2455"/><path id="wave_2" stroke="#015989" stroke-width="2" d="M2.10889 21.5746L5.18303 20.4656C5.52972 20.3406 5.90947 20.3421 6.25515 20.47L10.6146 22.0826C10.9891 22.2211 11.4023 22.211 11.7696 22.0543L15.3463 20.5285C15.7312 20.3644 16.1657 20.3614 16.5527 20.5204L20.2927 22.0562C20.6707 22.2114 21.0944 22.2123 21.4731 22.0588L25.2906 20.5113C25.6692 20.3579 26.0927 20.3588 26.4706 20.5139L30.2397 22.0605C30.6116 22.2131 31.0279 22.2165 31.4022 22.07L35.4796 20.4742C35.8138 20.3434 36.1828 20.3316 36.5246 20.4408L40.072 21.5746"/><path id="wave_3" fill="#015989" fill-rule="evenodd" d="M2.10889 24.2272L3.80854 23.6141C5.04287 23.1688 6.39489 23.1743 7.62558 23.6295L10.6146 24.7352C10.9891 24.8737 11.4023 24.8636 11.7696 24.707L13.8064 23.8381C15.1764 23.2537 16.7236 23.2432 18.1015 23.809L20.2927 24.7088C20.6707 24.864 21.0944 24.865 21.4731 24.7115L23.7788 23.7768C25.1265 23.2305 26.6345 23.2337 27.9798 23.7858L30.2397 24.7132C30.6116 24.8658 31.0279 24.8692 31.4022 24.7227L34.157 23.6445C35.3467 23.1788 36.6605 23.1369 37.8775 23.5259L40.072 24.2272V27.5421H2.31546L2.10889 24.2272Z" clip-rule="evenodd"/></g></g><path id="bird" fill="#FFC84A" fill-rule="evenodd" d="M14.0024 5.41838C14.0024 5.41838 15.5684 5.41838 16.0955 5.41838C16.6227 5.41838 17.8121 4.70185 18.5 4.9407C19.1879 5.17954 20.346 5.95065 20.346 5.95065C20.346 5.95065 22.2578 4.60913 23.3982 4.60913C24.5386 4.60913 26.5956 4.45996 26.5956 4.45996C26.5956 4.45996 26.113 5.57343 24.7556 5.76204C23.3982 5.95065 21.7742 6.87437 21.7742 6.87437C21.7742 6.87437 23.6441 6.87437 23.9804 6.87437C24.3167 6.87437 24.7556 7.32516 24.7556 7.32516C24.7556 7.32516 23.8502 7.87201 23.3982 7.87201C22.9463 7.87201 22.447 7.87201 22.447 7.87201C22.447 7.87201 21.4861 8.60498 20.299 8.44902C19.1119 8.29307 18.1594 7.32516 18.1594 7.32516C18.1594 7.32516 17.1208 7.19283 17.1208 7.0336C17.1208 7.0336 16.9979 6.98338 16.9413 6.98475C16.6146 6.99267 16.3968 7.04485 16.2882 7.0336C16.8854 6.82644 17.1208 6.64316 17.1208 6.64316C17.1208 6.64316 17.5319 6.30041 17.8457 6.30041C18.1594 6.30041 19.2073 6.87437 19.2073 6.87437L19.4575 6.64316L18.1594 5.76204C15.5118 6.00862 14.0024 5.41838 14.0024 5.41838Z" clip-rule="evenodd"/></g></g></g></g></g></g></g><defs><filter id="filter0_dd_91_27070" width="42" height="30" x="0" y="0" color-interpolation-filters="sRGB" filterUnits="userSpaceOnUse"><feFlood flood-opacity="0" result="BackgroundImageFix"/><feColorMatrix in="SourceAlpha" result="hardAlpha" values="0 0 0 0 0 0 0 0 0 0 0 0 0 0 0 0 0 0 127 0"/><feOffset dy="1"/><feGaussianBlur stdDeviation="1"/><feColorMatrix values="0 0 0 0 0.0627451 0 0 0 0 0.0941176 0 0 0 0 0.156863 0 0 0 0.06 0"/><feBlend in2="BackgroundImageFix" result="effect1_dropShadow_91_27070"/><feColorMatrix in="SourceAlpha" result="hardAlpha" values="0 0 0 0 0 0 0 0 0 0 0 0 0 0 0 0 0 0 127 0"/><feOffset dy="1"/><feGaussianBlur stdDeviation="1.5"/><feColorMatrix values="0 0 0 0 0.0627451 0 0 0 0 0.0941176 0 0 0 0 0.156863 0 0 0 0.1 0"/><feBlend in2="effect1_dropShadow_91_27070" result="effect2_dropShadow_91_27070"/><feBlend in="SourceGraphic" in2="effect2_dropShadow_91_27070" result="shape"/></filter><clipPath id="clip0_91_27070"><rect width="36" height="24" x="3" y="2" fill="white" rx="2"/></clipPath></defs></svg>

<svg xmlns="http://www.w3.org/2000/svg" fill="none" aria-hidden="true" viewBox="0 0 42 30"><g filter="url(#a)"><g clip-path="url(#b)"><mask id="c" width="36" height="24" x="3" y="2" maskUnits="userSpaceOnUse" style="mask-type:alpha"><path fill="#fff" d="M3 2h36v24H3z"/></mask><g mask="url(#c)"><path fill="#E31D1C" fill-rule="evenodd" d="M3 2v24h36V2H3Z" clip-rule="evenodd"/><mask id="d" width="36" height="24" x="3" y="2" maskUnits="userSpaceOnUse" style="mask-type:alpha"><path fill="#fff" fill-rule="evenodd" d="M3 2v24h36V2H3Z" clip-rule="evenodd"/></mask><g mask="url(#d)"><path fill="#FFC84A" fill-rule="evenodd" d="m21.01 11.96.056.006a7.05 7.05 0 0 1 .324-.822c.232-.482.9-.752.9-.752s-.33.331-.417.856a6.665 6.665 0 0 0-.078.853l.047.013c.116-.177.31-.459.531-.717.356-.418 1.079-.537 1.079-.537s-.411.25-.639.741a6.958 6.958 0 0 0-.298.78l.07.036c.16-.15.409-.372.675-.57.453-.336 1.187-.308 1.187-.308s-.464.162-.81.595a7.43 7.43 0 0 0-.469.67l.073.06a8.61 8.61 0 0 1 .765-.398c.526-.237 1.235-.062 1.235-.062s-.493.065-.94.418c-.228.18-.44.377-.593.527l.062.08c.215-.065.51-.148.807-.208.575-.117 1.214.205 1.214.205s-.496-.043-1.025.204a8.341 8.341 0 0 0-.669.353c.02.042.037.084.054.126.22-.019.502-.037.78-.036.59 0 1.131.442 1.131.442s-.472-.14-1.05-.006a8.65 8.65 0 0 0-.69.194c.009.052.017.104.023.158.209.025.462.061.71.113.574.119.99.657.99.657s-.425-.232-1.022-.216a8.69 8.69 0 0 0-.67.045 2.85 2.85 0 0 1-.02.172c.187.067.404.15.613.246.525.239.782.85.782.85s-.35-.315-.933-.43a8.557 8.557 0 0 0-.608-.093c-.024.065-.05.13-.078.192.155.097.328.213.492.336.451.337.547.985.547.985s-.26-.378-.8-.605a7.974 7.974 0 0 0-.532-.2 3.37 3.37 0 0 1-.138.183c.118.12.247.256.366.397.354.42.283 1.07.283 1.07s-.157-.42-.626-.75a7.449 7.449 0 0 0-.441-.286 3.064 3.064 0 0 1-.189.152c.08.137.162.29.236.445.23.483-.016 1.098-.016 1.098s-.039-.441-.404-.862a6.818 6.818 0 0 0-.332-.354 4.44 4.44 0 0 1-.241.116c.04.143.08.301.111.46.101.516-.294 1.067-.294 1.067s.074-.438-.175-.92a6.248 6.248 0 0 0-.229-.404c-.089.024-.18.044-.27.062.002.145 0 .303-.009.46-.032.523-.556.98-.556.98s.183-.412.062-.932a5.904 5.904 0 0 0-.12-.438 4.13 4.13 0 0 1-.272.002 5.868 5.868 0 0 1-.134.45c-.174.5-.807.831-.807.831s.29-.36.314-.89c.007-.156.006-.311.002-.454a4.046 4.046 0 0 1-.269-.057 6.254 6.254 0 0 1-.247.416c-.296.453-.997.65-.997.65s.373-.294.532-.806c.048-.155.088-.313.12-.457a3.89 3.89 0 0 1-.238-.11 6.857 6.857 0 0 1-.357.368c-.403.382-1.136.433-1.136.433s.439-.21.722-.678c.092-.15.174-.305.245-.446a3.6 3.6 0 0 1-.184-.144 7.476 7.476 0 0 1-.473.299c-.495.284-1.22.176-1.22.176s.482-.11.885-.503c.137-.134.267-.274.378-.401a3.356 3.356 0 0 1-.136-.174 7.63 7.63 0 0 1-.568.209c-.554.178-1.233-.072-1.233-.072s.498-.011.99-.313c.181-.112.356-.233.504-.341a3.01 3.01 0 0 1-.077-.18 8.55 8.55 0 0 1-.646.097c-.586.063-1.184-.317-1.184-.317s.488.089 1.043-.107a8.28 8.28 0 0 0 .627-.253 2.984 2.984 0 0 1-.022-.16 8.776 8.776 0 0 1-.71-.046c-.585-.065-1.062-.562-1.062-.562s.45.191 1.041.12c.26-.03.52-.077.727-.12a2.98 2.98 0 0 1 .018-.147 8.72 8.72 0 0 1-.73-.199c-.553-.18-.892-.76-.892-.76s.39.276.984.326c.287.024.575.029.798.027.015-.04.03-.078.047-.117a8.44 8.44 0 0 1-.706-.36c-.494-.286-.677-.919-.677-.919s.31.347.876.514c.298.088.604.154.828.197.017-.025.035-.05.054-.074a7.952 7.952 0 0 1-.63-.534c-.402-.385-.408-1.038-.408-1.038s.206.403.71.688c.283.158.58.296.79.386.02-.02.043-.038.065-.057a7.446 7.446 0 0 1-.505-.678c-.294-.454-.134-1.092-.134-1.092s.099.434.518.812c.25.224.522.428.703.557l.062-.034a7.034 7.034 0 0 1-.333-.789c-.171-.501.146-1.09.146-1.09s-.014.442.3.894c.193.28.418.543.561.704.014-.005.028-.01.042-.013a6.79 6.79 0 0 1-.113-.863c-.03-.523.438-1.027.438-1.027s-.134.426.047.932c.113.316.261.624.357.81l.054-.006a6.8 6.8 0 0 1 .109-.871c.103-.516.687-.913.687-.913s-.239.389-.19.918c.03.33.096.66.142.86Z" clip-rule="evenodd"/><path fill="#F7FCFF" fill-rule="evenodd" d="m2.109 15.92 3.074-1.109a1.562 1.562 0 0 1 1.072.004l4.36 1.613c.374.139.787.128 1.155-.028l3.576-1.526c.385-.164.82-.167 1.207-.008l3.74 1.536a1.56 1.56 0 0 0 1.18.002l3.818-1.547a1.562 1.562 0 0 1 1.18.002l3.769 1.547c.372.152.788.156 1.162.01l4.078-1.596a1.562 1.562 0 0 1 1.045-.034l3.547 1.134v10.014H2.009l.1-10.014Z" clip-rule="evenodd"/><mask id="e" width="39" height="12" x="2" y="14" maskUnits="userSpaceOnUse" style="mask-type:alpha"><path fill="#fff" fill-rule="evenodd" d="m2.109 15.92 3.074-1.109a1.562 1.562 0 0 1 1.072.004l4.36 1.613c.374.139.787.128 1.155-.028l3.576-1.526c.385-.164.82-.167 1.207-.008l3.74 1.536a1.56 1.56 0 0 0 1.18.002l3.818-1.547a1.562 1.562 0 0 1 1.18.002l3.769 1.547c.372.152.788.156 1.162.01l4.078-1.596a1.562 1.562 0 0 1 1.045-.034l3.547 1.134v10.014H2.009l.1-10.014Z" clip-rule="evenodd"/></mask><g mask="url(#e)"><path stroke="#015989" stroke-width="2" d="m2.109 18.245 3.074-1.108a1.562 1.562 0 0 1 1.072.004l4.36 1.613c.374.138.787.128 1.155-.029l3.576-1.526c.385-.164.82-.167 1.207-.008l3.74 1.536c.378.155.801.156 1.18.003l3.818-1.548a1.562 1.562 0 0 1 1.18.003l3.769 1.546c.372.153.788.156 1.162.01l4.078-1.596c.334-.13.703-.142 1.045-.033l3.547 1.134M2.109 21.575l3.074-1.11a1.562 1.562 0 0 1 1.072.005l4.36 1.613c.374.138.787.128 1.155-.029l3.576-1.525a1.56 1.56 0 0 1 1.207-.009l3.74 1.536c.378.155.801.156 1.18.003l3.818-1.548a1.562 1.562 0 0 1 1.18.003l3.769 1.547c.372.152.788.155 1.162.009l4.078-1.596c.334-.13.703-.142 1.045-.033l3.547 1.134"/><path fill="#015989" fill-rule="evenodd" d="m2.109 24.227 1.7-.613a5.562 5.562 0 0 1 3.817.015l2.989 1.106c.374.139.787.129 1.155-.028l2.036-.869a5.562 5.562 0 0 1 4.296-.029l2.19.9c.379.155.802.156 1.181.003l2.306-.935a5.562 5.562 0 0 1 4.2.009l2.26.927c.373.153.789.156 1.163.01l2.755-1.078a5.562 5.562 0 0 1 3.72-.12l2.195.702v3.315H2.315l-.206-3.315Z" clip-rule="evenodd"/></g><path fill="#FFC84A" fill-rule="evenodd" d="M14.002 5.418h2.094c.527 0 1.716-.716 2.404-.477s1.846 1.01 1.846 1.01 1.912-1.342 3.052-1.342c1.14 0 3.198-.149 3.198-.149s-.483 1.113-1.84 1.302c-1.358.189-2.982 1.112-2.982 1.112h2.206c.337 0 .776.451.776.451s-.906.547-1.358.547h-.951s-.96.733-2.148.577c-1.187-.156-2.14-1.124-2.14-1.124s-1.038-.132-1.038-.291c0 0-.123-.05-.18-.05-.326.009-.544.06-.653.05.597-.208.833-.39.833-.39s.41-.344.725-.344c.313 0 1.361.574 1.361.574l.25-.23-1.298-.882c-2.647.247-4.157-.344-4.157-.344Z" clip-rule="evenodd"/></g></g></g></g><defs><clipPath id="b"><rect width="36" height="24" x="3" y="2" fill="#fff" rx="2"/></clipPath><filter id="a" width="42" height="30" x="0" y="0" color-interpolation-filters="sRGB" filterUnits="userSpaceOnUse"><feFlood flood-opacity="0" result="BackgroundImageFix"/><feColorMatrix in="SourceAlpha" result="hardAlpha" values="0 0 0 0 0 0 0 0 0 0 0 0 0 0 0 0 0 0 127 0"/><feOffset dy="1"/><feGaussianBlur stdDeviation="1"/><feColorMatrix values="0 0 0 0 0.0627451 0 0 0 0 0.0941176 0 0 0 0 0.156863 0 0 0 0.06 0"/><feBlend in2="BackgroundImageFix" result="effect1_dropShadow_91_27070"/><feColorMatrix in="SourceAlpha" result="hardAlpha" values="0 0 0 0 0 0 0 0 0 0 0 0 0 0 0 0 0 0 127 0"/><feOffset dy="1"/><feGaussianBlur stdDeviation="1.5"/><feColorMatrix values="0 0 0 0 0.0627451 0 0 0 0 0.0941176 0 0 0 0 0.156863 0 0 0 0.1 0"/><feBlend in2="effect1_dropShadow_91_27070" result="effect2_dropShadow_91_27070"/><feBlend in="SourceGraphic" in2="effect2_dropShadow_91_27070" result="shape"/></filter></defs></svg>
